src/assets/filled/MenuBoard.svg

<svg width="24" height="24" viewBox="0 0 24 24"  xmlns="http://www.w3.org/2000/svg">
<path d="M20.8999 9.85L21.4899 19.74C21.5099 20.01 21.3799 20.19 21.3099 20.27C21.2299 20.36 21.0599 20.5 20.7799 20.5H18.0499L20.2099 9.85H20.8999ZM21.9999 6L21.9899 6.02C22.0099 6.26 21.9899 6.51 21.9299 6.76L14.5599 20.29C14.3199 21.3 13.4199 22 12.3799 22H20.7799C22.0699 22 23.0899 20.91 22.9899 19.62L21.9999 6Z" />
<path d="M11.45 2.24039C11.55 1.84039 11.3 1.43039 10.9 1.33039C10.5 1.24039 10.09 1.48039 9.98999 1.88039L9.48999 3.95039H11.03L11.45 2.24039Z" />
<path d="M18.0499 2.20957C18.1399 1.79957 17.8799 1.40957 17.4699 1.31957C17.0699 1.22957 16.6699 1.48957 16.5799 1.89957L16.1299 3.96957H17.6699L18.0499 2.20957Z" />
<path d="M21.82 5.33043C21.49 4.53043 20.71 3.96043 19.75 3.96043H17.67L17.11 6.55043C17.03 6.90043 16.72 7.14043 16.38 7.14043C16.33 7.14043 16.27 7.14043 16.22 7.12043C15.82 7.03043 15.56 6.63043 15.64 6.23043L16.13 3.95043H11.03L10.4 6.55043C10.32 6.89043 10.01 7.12043 9.67 7.12043C9.61 7.12043 9.55 7.11043 9.49 7.10043C9.09 7.00043 8.84 6.60043 8.94 6.19043L9.48 3.94043H7.45C6.47 3.94043 5.6 4.58043 5.31 5.52043L1.1 19.0704C0.659999 20.5204 1.73 22.0004 3.24 22.0004H16.38C17.42 22.0004 18.32 21.3004 18.56 20.2904L21.93 6.76043C21.99 6.51043 22.01 6.26043 21.99 6.02043C21.97 5.78043 21.92 5.54043 21.82 5.33043ZM14.7 16.7504H6.7C6.29 16.7504 5.95 16.4104 5.95 16.0004C5.95 15.5904 6.29 15.2504 6.7 15.2504H14.7C15.11 15.2504 15.45 15.5904 15.45 16.0004C15.45 16.4104 15.11 16.7504 14.7 16.7504ZM15.7 12.7504H7.7C7.29 12.7504 6.95 12.4104 6.95 12.0004C6.95 11.5904 7.29 11.2504 7.7 11.2504H15.7C16.11 11.2504 16.45 11.5904 16.45 12.0004C16.45 12.4104 16.11 12.7504 15.7 12.7504Z" />
</svg>

<?xml version="1.0" encoding="UTF-8"?>
<svg width="24" height="24" viewBox="0 0 24 24" xmlns="http://www.w3.org/2000/svg">
 <path d="m20.9 9.85 0.59 9.89c0.02 0.27-0.11 0.45-0.18 0.53-0.08 0.09-0.25 0.23-0.53 0.23h-2.73l2.16-10.65h0.69zm1.1-3.85-0.01 0.02c0.02 0.24 0 0.49-0.06 0.74l-7.37 13.53c-0.24 1.01-1.14 1.71-2.18 1.71h8.4c1.29 0 2.31-1.09 2.21-2.38l-0.99-13.62z"/>
 <path d="m11.45 2.2404c0.1-0.4-0.15-0.81-0.55-0.91-0.4-0.09-0.81 0.15-0.91001 0.55l-0.5 2.07h1.54l0.42-1.71z"/>
 <path d="m18.05 2.2096c0.09-0.41-0.17-0.8-0.58-0.89-0.4-0.09-0.8 0.17-0.89 0.58l-0.45 2.07h1.54l0.38-1.76z"/>
 <path d="m21.82 5.3304c-0.33-0.8-1.11-1.37-2.07-1.37h-2.08l-0.56 2.59c-0.08 0.35-0.39 0.59-0.73 0.59-0.05 0-0.11 0-0.16-0.02-0.4-0.09-0.66-0.49-0.58-0.89l0.49-2.28h-5.1l-0.63 2.6c-0.08 0.34-0.39 0.57-0.73 0.57-0.06 0-0.12-0.01-0.18-0.02-0.4-0.1-0.65-0.5-0.55-0.91l0.54-2.25h-2.03c-0.98 0-1.85 0.64-2.14 1.58l-4.21 13.55c-0.44 1.45 0.63 2.93 2.14 2.93h13.14c1.04 0 1.94-0.7 2.18-1.71l3.37-13.53c0.06-0.25 0.08-0.5 0.06-0.74s-0.07-0.48-0.17-0.69zm-7.12 11.42h-8c-0.41 0-0.75-0.34-0.75-0.75s0.34-0.75 0.75-0.75h8c0.41 0 0.75 0.34 0.75 0.75s-0.34 0.75-0.75 0.75zm1-4h-8c-0.41 0-0.75-0.34-0.75-0.75s0.34-0.75 0.75-0.75h8c0.41 0 0.75 0.34 0.75 0.75s-0.34 0.75-0.75 0.75z"/>
</svg>
